X: 38586
T: Stone In The Field, The
R: reel
M: 4/4
K: Adorian
|:EAAG A2 (3Bcd|ea3 gedB|cBAc BG3|AcBA GEDG|
EAAG A2 (3Bcd|ea3 gedB|c3d eg3|1 dBGB A3G:|2 dBGB A2 (3Bcd||
|:eabg a3b|gabg aged|cAAc BGGB|AcBA GE D2|
ea3 bg3|agef g3a|bgaf gedB|1 AcBG ABcd:|2 AcBG A3G||

